X:1
T: Blackwater
C:
R:Reel
Q:232
K:G
M:4/4
L:1/8
dc|BG GG G2dc|BG Bd gd ec|BG GG G2cB|AG FG AB cA|
BG GG G2dc|BG Bd g2fg|af ge fd ec|AG FG AB cA|
|:Bd dd d2dc|BG Bd gd ec|Bd dd d2cB|AG FG AB cA|
Bd dd d2dc|BG Bd g2fg|af ge fd ec|AG FG AB cA:|
BG GG G2dc|BG Bd gd ec|BG GG G2cB|AG FG AB cA|
BG GG G2dc|BG Bd g2fg|af ge fd ec|AG FG AB cA||
